X: 9
T: BeaulteCastile
M: 6/8
L: 1/8
K:C clef=treble-8 octave=1 
V:1
C6| C6| G,6| C6|
C6| C6| G,6| C6|
C6| G,6| C4-CC| D2C B,2A,|
G,4-G,G,| D2C B,A,/2G,/2A,/2^F,/2| G,6| =F,6|
F,6| F,4-F,G,| D2C B,A,/2G,/2A,/2^F,/2| G,6|
=F,6| F,6| F,4-F,G,| D2C B,A,/2G,/2A,/2^F,/2| G,6|

